!!!!SEGMENT:Honmachi.krn
!!!OTL: 本町
!!!OPR:Eiga Banso Kyokusyu,jidai-geki,kouhen
!!!YOY:1928
!!!ONB:Shicyuuno_bamen
**kern
*clefG2
*k[f#c#]
*D:
*M2/4
=1
4f#
4f#
=2
4e
4f#
=3
2a
=4
4a
4b
=5
4cc#
4b
=6
4a
4b
=7
4b
4cc#
=8
4c#
4cc#
=9
[2cc#
=10
4cc#]
4r
=11!|:
4f#
4ff#
=12
4r
4ff#
=13
4ff#
4ff#
=14
4ee
4ff#
=15
4f#
4gg
=16
4r
4gg
=17
2ff#
=18
4gg
4ff#
=19
4ee
4ee
=20
4ff#
4ee
=21
2ccn
=22
2b
=23
4cc#
4r
=24
4r
8eeL
8eeJ
=25
*^
4ff#	4ryy
4raa	8eL
.	8eJ
=26	=26
4raa	4f#
4ee	4ryy
*v	*v
=27
4ff#
4ee
=28
4cc#
4ee
=29
4b
4b
=30
4b
4cc#
=31
4a
4a
=32
4b
4a
=33
4f#
4f#
=34
4r
4g
=35
4.f#
8e
=36
4c#
4B
=37
[2e
=38
4e]
4f#
=39
[2a
=40
4a]
4b
=41
4cc#
4b
=42
4a
4b
=43
4cc#
4cc#
=44
4c#
4cc#
=45
[2cc#
=46
4cc#]
4r
=:|!
*-
!!!ENC: Yukiko Yoden
!!!END: 2023/06/11
